src/assets/media/images/about/gamification_icon.svg

<svg width="99" height="69" xmlns="http://www.w3.org/2000/svg">
    <path d="M42 59.5h15l.2.2c3.2 4 7.4 6.8 12.2 8.1 7.2 1.9 14.7.4 20.5-4.2 5.8-4.5 9.1-11.2 9.1-18.5C99 32 88.4 21.4 75.3 21.4H53.2v-5.8h-1.4v-.5c.2-3.1 1.5-4.5 4.2-4.6 1.3 0 2.9.1 4.5.3 7.2.7 14.7 1.5 16.2-9.8L72 .4c-1 6.7-6.6 6.2-11 5.7-1.8-.2-3.5-.4-5.1-.3-7.5.2-8.6 4.6-8.7 9.3v.5h-1.3v5.8H23.7C10.6 21.3 0 32 0 45c0 7.3 3.3 14.1 9 18.5 5.9 4.5 13.4 6.1 20.6 4.2 4.8-1.3 9-4 12.2-8.1l.2-.1zm33.5 4.3c-1.6 0-3.3-.2-4.9-.6-5.3-1.4-8.2-4.2-11.2-8.4H39.6c-2.9 4.1-5.9 7-11.2 8.4-5.8 1.5-11.8.3-16.5-3.4-4.6-3.6-7.2-9-7.2-14.8 0-10.5 8.5-19 19-19h51.6c10.5 0 19 8.5 19 19 0 5.9-2.6 11.3-7.3 14.9-3.3 2.6-7.4 3.9-11.5 3.9zm.6-14.9c-1.5 0-2.8 1.2-2.8 2.8 0 1.5 1.2 2.7 2.8 2.7 1.5 0 2.7-1.2 2.7-2.7.1-1.6-1.1-2.8-2.7-2.8zm-55.6 5.5h4.7v-7.1h7.1v-4.7h-7.1v-7.1h-4.7v7.1h-7.1v4.7h7.1v7.1zm31.2-3.7h6.5v-2.9h-6.5v2.9zm-10.9 0h6.5v-2.9h-6.5v2.9zm42.1-8.5c-1.5 0-2.8 1.2-2.8 2.8 0 1.6 1.2 2.8 2.8 2.8 1.6 0 2.8-1.2 2.8-2.8 0-1.6-1.3-2.8-2.8-2.8zm-13.5 0c-1.5 0-2.8 1.2-2.8 2.8 0 1.5 1.2 2.7 2.8 2.7 1.5 0 2.7-1.2 2.7-2.7 0-1.6-1.2-2.8-2.7-2.8zm6.7-6.8c-1.5 0-2.8 1.2-2.8 2.8 0 1.6 1.2 2.8 2.8 2.8 1.5 0 2.8-1.2 2.8-2.8 0-1.6-1.2-2.8-2.8-2.8z" fill="#FFF" fill-rule="nonzero"/>
</svg>

<?xml version="1.0" encoding="UTF-8"?>
<svg width="99px" height="69px" viewBox="0 0 99 69" version="1.1" xmlns="http://www.w3.org/2000/svg" xmlns:xlink="http://www.w3.org/1999/xlink">
    <!-- Generator: Sketch 55.2 (78181) - https://sketchapp.com -->
    <title>Shape</title>
    <desc>Created with Sketch.</desc>
    <g id="Page-1" stroke="none" stroke-width="1" fill="none" fill-rule="evenodd">
        <g id="gamification_icon" fill="#FFFFFF" fill-rule="nonzero">
            <path d="M42,59.5 L57,59.5 L57.2,59.7 C60.4,63.7 64.6,66.5 69.4,67.8 C76.6,69.7 84.1,68.2 89.9,63.6 C95.7,59.1 99,52.4 99,45.1 C99,32 88.4,21.4 75.3,21.4 L53.2,21.4 L53.2,15.6 L51.8,15.6 L51.8,15.1 C52,12 53.3,10.6 56,10.5 C57.3,10.5 58.9,10.6 60.5,10.8 C67.7,11.5 75.2,12.3 76.7,1 L72,0.4 C71,7.1 65.4,6.6 61,6.1 C59.2,5.9 57.5,5.7 55.9,5.8 C48.4,6 47.3,10.4 47.2,15.1 L47.2,15.6 L45.9,15.6 L45.9,21.4 L23.7,21.4 C10.6,21.3 0,32 0,45 C0,52.3 3.3,59.1 9,63.5 C14.9,68 22.4,69.6 29.6,67.7 C34.4,66.4 38.6,63.7 41.8,59.6 L42,59.5 Z M75.5,63.8 C73.9,63.8 72.2,63.6 70.6,63.2 C65.3,61.8 62.4,59 59.4,54.8 L39.6,54.8 C36.7,58.9 33.7,61.8 28.4,63.2 C22.6,64.7 16.6,63.5 11.9,59.8 C7.3,56.2 4.7,50.8 4.7,45 C4.7,34.5 13.2,26 23.7,26 L75.3,26 C85.8,26 94.3,34.5 94.3,45 C94.3,50.9 91.7,56.3 87,59.9 C83.7,62.5 79.6,63.8 75.5,63.8 Z M76.1,48.9 C74.6,48.9 73.3,50.1 73.3,51.7 C73.3,53.2 74.5,54.4 76.1,54.4 C77.6,54.4 78.8,53.2 78.8,51.7 C78.9,50.1 77.7,48.9 76.1,48.9 Z M20.5,54.4 L25.2,54.4 L25.2,47.3 L32.3,47.3 L32.3,42.6 L25.2,42.6 L25.2,35.5 L20.5,35.5 L20.5,42.6 L13.4,42.6 L13.4,47.3 L20.5,47.3 L20.5,54.4 Z M51.7,50.7 L58.2,50.7 L58.2,47.8 L51.7,47.8 L51.7,50.7 Z M40.8,50.7 L47.3,50.7 L47.3,47.8 L40.8,47.8 L40.8,50.7 Z M82.9,42.2 C81.4,42.2 80.1,43.4 80.1,45 C80.1,46.6 81.3,47.8 82.9,47.8 C84.5,47.8 85.7,46.6 85.7,45 C85.7,43.4 84.4,42.2 82.9,42.2 Z M69.4,42.2 C67.9,42.2 66.6,43.4 66.6,45 C66.6,46.5 67.8,47.7 69.4,47.7 C70.9,47.7 72.1,46.5 72.1,45 C72.1,43.4 70.9,42.2 69.4,42.2 Z M76.1,35.4 C74.6,35.4 73.3,36.6 73.3,38.2 C73.3,39.8 74.5,41 76.1,41 C77.6,41 78.9,39.8 78.9,38.2 C78.9,36.6 77.7,35.4 76.1,35.4 Z" id="Shape"></path>
        </g>
    </g>
</svg>
